layouts/icon-pack/weapon_staff.svg

<?xml version="1.0" encoding="UTF-8"?>
<svg width="1200pt" height="1200pt" version="1.1" viewBox="0 0 1200 1200" xmlns="http://www.w3.org/2000/svg">
 <g fill="#fff">
  <path d="m1118.6 281.72c-67.289-56.555-168.54-158.79-211.15-202.41-5.3828-5.5273-12.652-8.8242-20.359-9.2344-7.7031-0.41016-15.281 2.1016-21.219 7.0312-90.609 75-211.2 147.66-253.92 172.73-4.7188 2.7734-8.6094 6.7578-11.262 11.543-2.6562 4.7891-3.9766 10.195-3.832 15.668 3.3984 137.16-39.68 283.41-57.867 338.65-4.7422 14.414-15.625 25.992-29.719 31.617l-142.03 56.883c-24.449 9.8086-43.039 30.305-50.414 55.594l-35.977 123.56c-3.25 11.098-9.6406 21.02-18.398 28.57-29.977 25.945-120.7 135.94-187.34 193.62-12.469 10.781 1.0078 30.469 15.562 22.641 82.219-43.688 189.38-132.16 233.32-152.7 15.945-7.3789 27.785-21.461 32.32-38.438 10.922-41.391 27.68-80.578 39.422-105.47 8.5977-18.27 23.395-32.895 41.766-41.273 45.023-20.578 108.35-42.188 145.69-54.539 9.1602-2.9844 17.293-8.4922 23.465-15.895 6.168-7.4023 10.125-16.395 11.41-25.941 15.984-117.85 45.93-233.38 89.203-344.16 12.934-33.141 33.125-62.961 59.086-87.281 53.156-49.219 105.28-50.789 140.39-43.078 31.234 6.7422 58.457 25.742 75.562 52.734 44.414 71.039-28.875 130.36-28.875 130.36-37.289 29.297-94.875 19.734-121.1 13.195-3.3984-0.85938-7.0039-0.13281-9.8047 1.9727-2.8008 2.1094-4.4961 5.375-4.6094 8.8789l-1.2422 32.109c-0.14062 3.7305 1.5273 7.3008 4.4766 9.5859l76.969 59.812c6.9648 5.4102 15.727 7.9766 24.512 7.1758 8.7812-0.80078 16.938-4.9062 22.809-11.488l176.39-197.98c5.5156-6.2266 8.2852-14.418 7.6758-22.715s-4.543-15.992-10.91-21.348z"/>
  <path d="m875.39 376.05c14.336 0.55469 28.309-4.6094 38.84-14.352s16.766-23.27 17.324-37.609c0.5625-14.336-4.5938-28.309-14.332-38.848-9.7383-10.535-23.262-16.773-37.598-17.344-14.336-0.56641-28.312 4.5781-38.855 14.312s-16.789 23.254-17.363 37.59c-0.57812 14.355 4.5781 28.352 14.328 38.902 9.7539 10.551 23.301 16.793 37.656 17.348z"/>
 </g>
</svg>

<?xml version="1.0" encoding="UTF-8" standalone="no"?>
<!DOCTYPE svg PUBLIC "-//W3C//DTD SVG 1.1//EN" "http://www.w3.org/Graphics/SVG/1.1/DTD/svg11.dtd">
<svg width="100%" height="100%" viewBox="0 0 512 512" version="1.1" xmlns="http://www.w3.org/2000/svg" xmlns:xlink="http://www.w3.org/1999/xlink" xml:space="preserve" xmlns:serif="http://www.serif.com/" style="fill-rule:evenodd;clip-rule:evenodd;stroke-linejoin:round;stroke-miterlimit:2;">
    <g transform="matrix(1,0,0,1,-70.1951,-70.0322)">
        <g transform="matrix(0.483044,0,0,0.483044,36.2877,36.2036)">
            <path d="M1118.6,281.72C1051.31,225.165 950.06,122.93 907.45,79.31C902.067,73.783 894.798,70.486 887.091,70.076C879.388,69.665 871.81,72.177 865.872,77.107C775.263,152.107 654.672,224.767 611.952,249.837C607.233,252.61 603.343,256.595 600.69,261.38C598.034,266.169 596.713,271.575 596.858,277.048C600.256,414.208 557.178,560.458 538.991,615.698C534.249,630.112 523.366,641.69 509.272,647.315L367.242,704.198C342.793,714.006 324.203,734.503 316.828,759.792L280.851,883.352C277.601,894.45 271.21,904.372 262.453,911.922C232.476,937.867 141.753,1047.86 75.113,1105.54C62.644,1116.32 76.121,1136.01 90.675,1128.18C172.894,1084.5 280.055,996.023 323.995,975.483C339.94,968.104 351.78,954.022 356.315,937.045C367.237,895.654 383.995,856.467 395.737,831.575C404.335,813.305 419.132,798.68 437.503,790.302C482.526,769.724 545.853,748.114 583.193,735.763C592.353,732.778 600.486,727.271 606.658,719.868C612.826,712.466 616.783,703.473 618.068,693.927C634.052,576.077 663.998,460.547 707.271,349.767C720.205,316.626 740.396,286.806 766.357,262.486C819.513,213.267 871.637,211.697 906.747,219.408C937.981,226.15 965.204,245.15 982.309,272.142C1026.72,343.181 953.434,402.502 953.434,402.502C916.145,431.799 858.559,422.236 832.334,415.697C828.936,414.837 825.33,415.564 822.529,417.67C819.728,419.779 818.033,423.045 817.92,426.548L816.678,458.657C816.537,462.388 818.205,465.958 821.154,468.243L898.123,528.055C905.088,533.466 913.85,536.032 922.635,535.231C931.416,534.43 939.573,530.325 945.444,523.743L1121.83,325.763C1127.35,319.537 1130.12,311.345 1129.51,303.048C1128.9,294.751 1124.97,287.056 1118.6,281.7L1118.6,281.72Z" style="fill:white;fill-rule:nonzero;"/>
            <path d="M875.39,376.05C889.726,376.605 903.699,371.441 914.23,361.698C924.761,351.955 930.996,338.428 931.554,324.089C932.117,309.753 926.96,295.78 917.222,285.241C907.484,274.706 893.96,268.468 879.624,267.897C865.288,267.331 851.312,272.475 840.769,282.209C830.226,291.943 823.98,305.463 823.406,319.799C822.828,334.154 827.984,348.151 837.734,358.701C847.488,369.252 861.035,375.494 875.39,376.049L875.39,376.05Z" style="fill:white;fill-rule:nonzero;"/>
        </g>
    </g>
</svg>
